svgs/sharp-light/lock-hashtag.svg

<svg xmlns="http://www.w3.org/2000/svg" viewBox="0 0 448 512"><!--! Font Awesome Pro 6.6.0 by @fontawesome - https://fontawesome.com License - https://fontawesome.com/license (Commercial License) Copyright 2024 Fonticons, Inc. --><path d="M128 128l0 64 192 0 0-64c0-53-43-96-96-96s-96 43-96 96zM96 192l0-64C96 57.3 153.3 0 224 0s128 57.3 128 128l0 64 64 0 32 0 0 32 0 256 0 32-32 0L32 512 0 512l0-32L0 224l0-32 32 0 64 0zM32 480l384 0 0-256L32 224l0 256zM192 240l0 16 0 32 64 0 0-32 0-16 32 0 0 16 0 32 32 0 16 0 0 32-16 0-32 0 0 64 32 0 16 0 0 32-16 0-32 0 0 32 0 16-32 0 0-16 0-32-64 0 0 32 0 16-32 0 0-16 0-32-32 0-16 0 0-32 16 0 32 0 0-64-32 0-16 0 0-32 16 0 32 0 0-32 0-16 32 0zm0 144l64 0 0-64-64 0 0 64z"/></svg>

<svg xmlns="http://www.w3.org/2000/svg" viewBox="0 0 448 512"><!--! Font Awesome Pro 6.4.0 by @fontawesome - https://fontawesome.com License - https://fontawesome.com/license (Commercial License) Copyright 2023 Fonticons, Inc. --><path d="M128 128v64H320V128c0-53-43-96-96-96s-96 43-96 96zM96 192V128C96 57.3 153.3 0 224 0s128 57.3 128 128v64h64 32v32V480v32H416 32 0V480 224 192H32 96zM32 480H416V224H32V480zM192 240v16 32h64V256 240h32v16 32h32 16v32H320 288v64h32 16v32H320 288v32 16H256V448 416H192v32 16H160V448 416H128 112V384h16 32V320H128 112V288h16 32V256 240h32zm0 144h64V320H192v64z"/></svg>
